X:1
T:The Slave's Lament
M:4/4
L:1/8
K:F
 FE| DE FG A2 AA| Af ed ^c2 AB| G3/2- F/2 GA Bd cB| A6|c-B| AG DD D2 GA|\
 BA GF E2 A^c| d2 ^cd AF EF| D6|c-B| AF DD D2 GA| BA GF E2 A^c| d2 ^cd AF EF|\
 D6||
